package/converter/svg/regular/microscope.svg

<svg xmlns="http://www.w3.org/2000/svg" viewBox="0 0 512 512"><!-- Font Awesome Pro 6.0.0-alpha2 by @fontawesome - https://fontawesome.com License - https://fontawesome.com/license (Commercial License) --><path d="M488 464H446.576C486.586 428.789 512 377.365 512 320C512 214.125 425.875 128 320 128V176C399.406 176 464 240.594 464 320S399.406 464 320 464H24C10.746 464 0 474.744 0 488C0 501.254 10.746 512 24 512H488C501.254 512 512 501.254 512 488C512 474.744 501.254 464 488 464ZM120 432H296C309.254 432 320 421.254 320 408C320 394.744 309.254 384 296 384H120C106.746 384 96 394.744 96 408C96 421.254 106.746 432 120 432ZM160 320H176V336C176 344.836 183.164 352 192 352H224C232.836 352 240 344.836 240 336V320H256C273.674 320 288 305.674 288 288V64C288 46.326 273.674 32 256 32C256 14.326 241.674 0 224 0H192C174.326 0 160 14.326 160 32C142.326 32 128 46.326 128 64V288C128 305.674 142.326 320 160 320ZM176 80H240V272H176V80Z"/></svg>

<svg xmlns="http://www.w3.org/2000/svg" viewBox="0 0 512 512"><!--! Font Awesome Pro 6.6.0 by @fontawesome - https://fontawesome.com License - https://fontawesome.com/license (Commercial License) Copyright 2024 Fonticons, Inc. --><path d="M192 0c-17.7 0-32 14.3-32 32c-17.7 0-32 14.3-32 32l0 224c0 17.7 14.3 32 32 32c0 17.7 14.3 32 32 32l32 0c17.7 0 32-14.3 32-32c17.7 0 32-14.3 32-32l0-224c0-17.7-14.3-32-32-32c0-17.7-14.3-32-32-32L192 0zM176 272l0-192 64 0 0 192-64 0zM24 464c-13.3 0-24 10.7-24 24s10.7 24 24 24l296 0 168 0c13.3 0 24-10.7 24-24s-10.7-24-24-24l-41 0c39.9-35.2 65-86.7 65-144c0-106-86-192-192-192c0 0 0 0 0 0l0 48s0 0 0 0c79.5 0 144 64.5 144 144s-64.5 144-144 144c0 0 0 0 0 0L24 464zm72-56c0 13.3 10.7 24 24 24l176 0c13.3 0 24-10.7 24-24s-10.7-24-24-24l-176 0c-13.3 0-24 10.7-24 24z"/></svg>
